X: 27866
T: Mouldy Pint, The
R: reel
M: 4/4
K: Eminor
BA|:GEFD Eeed|(3Bcd BG A2 GA|BGAF GEEF|GEFD E2 BA|
GEFD Eeed|(3Bcd BG d2 Bd|edBd BAGB|AGED E2 Bd:|
|:e3e edBe|e2 dA B2 Bd|e3e edBG|AFGD E2 Bd|
e3e edBe|e2 dA B2 Bd|gefd eBBA|GEFD E2 Bd:|

